!!!!SEGMENT: pl-cz--iii-745--001-007_zebrowski-marcin-jozef--missa-pastoralis-et-resurrexit.krn
!!!cenid: 17xx:2355
!!!COM: Żebrowski, Marcin Józef
!!!COM-rismID:
!!!CDT: 1702-1770/06/29
!!!CNT: Polish
!!!OPR: Missa Pastoralis
!!!OTL: Et resurrexit
!!!OMV: 007
!!!PDT:
!!!AGN:
!!!SMS-siglum: PL-CZ
!!!SMS-shelfmark: III-745
!!!SMS-shelfwork: 001-007 M
!!!SMS-variant:
!!!SMS-altvar:
!!!NIFC-rismSourceID: 300033497
!!!NIFC-islandoraID: pl-cz:25279
!!!URL-pdf-islandora: https://repozytorium.nifc.pl/islandora/object/pl-cz%3A25279/datastream/PDF/view
!!!URL-scan: https://polish.musicsources.pl/pl/lokalizacje/galeria/rekopisy/1475 @EN{Scan on Polish Music Herritage in Open Access Website} @PL{Skany w portalu Dziedzictwo Muzyki Polskiej w otwartym dostępie}
!!!ONB-nifc: UWAGA: części Mszy: 1. Kyrie, 2. Christe, 3. Et in terra, 4. Quoniam, 5. Patrem, 6. Et incarnatus, 7. Et resurrexit, 8. Sanctus, 9. Benedictus, 10. Osanna, 11. Agnus Dei
!!!AIN: 4 empty 1 organ 2 violn
!!!key:
**kern	**fba	**kern	**kern	**kern	**text	**kern	**text	**kern	**kern
*part7	*part7	*part6	*part5	*part4	*part4	*part3	*part3	*part2	*part1
*staff7	*	*staff6	*staff5	*staff4	*staff4	*staff3	*staff3	*staff2	*staff1
*Iorgan	*	*Ivioln	*Ivioln	*Iempty	*	*Iempty	*	*Iempty	*Iempty
*I"Organo	*	*I"Violino Secundo	*I"Violino Primo	*I"Baſso	*	*I"Soprano o Canto	*	*I"Clarino Secundo in D	*I"Clarino Primo in D
*I'org	*	*I'vl 2	*I'vl 1	*I'B	*	*I'S o C	*	*I'clno 2 in D	*I'clno 1 in D
*clefF4	*	*clefG2	*clefG2	*clefF4	*	*clefC1	*	*clefG2	*clefG2
*	*	*	*	*	*	*	*	*ITrd-1c-2	*ITrd-1c-2
*k[f#c#]	*	*k[f#c#]	*k[f#c#]	*k[f#c#]	*	*k[f#c#]	*	*k[f#c#]	*k[f#c#]
*D:	*	*D:	*D:	*D:	*	*D:	*	*D:	*D:
*M3/4	*	*M3/4	*M3/4	*M3/4	*	*M3/4	*	*M3/4	*M3/4
=1	=1	=1	=1	=1	=1	=1	=1	=1	=1
*	*	*	*	*2\right	*	*2\right	*	*	*
!	!	!	!	!	!	!	!	!LO:TX:a:t=allegro	!
4d\	.	8d/ 8a/ 8ff#/	8d/ 8a/ 8ff#/	2d\	Et	2dd\	Et	4dd\	4dd\
!	!	!LO:TX:a:t=|:problem	!	!	!	!	!	!	!
.	.	8aa\L	8aa\L	.	.	.	.	.	.
!	!	!LO:TX:a:t=|:problem	!	!	!	!	!	!	!
8r	.	8ff#\	8ff#\	.	.	.	.	8r	8r
!LO:TX:a:t=|:problem	!	!LO:TX:a:t=|:problem	!	!	!	!	!	!LO:TX:a:t=|:problem	!LO:TX:a:t=|:problem
8d\L	.	8dd\	8dd\	.	.	.	.	8dd\L	8dd\L
!LO:TX:a:t=|:problem	!	!LO:TX:a:t=|:problem	!	!	!	!	!	!LO:TX:a:t=|:problem	!LO:TX:a:t=|:problem
8A\	.	8a\	8a\	8A\	re-	8a\	re-	8a\	8a\
!LO:TX:a:t=|:problem	!	!LO:TX:a:t=|:problem	!	!	!	!	!	!LO:TX:a:t=|:problem	!LO:TX:a:t=|:problem
8F#\J	.	8f#\J	8f#\J	8F#\	-ſu-	8f#/	-sur-	8f#\J	8f#\J
=2	=2	=2	=2	=2	=2	=2	=2	=2	=2
4D\	.	8d/L	8d/L	4D/	-re-	4d/	-re-	8d/L	8d/L
.	.	16d/L	16d/L	.	.	.	.	16d/L	16d/L
.	.	16d/JJ	16d/JJ	.	.	.	.	16d/JJ	16d/JJ
!	!	!	!	!	!	!	!	!LO:TX:b:t=|:problem	!LO:TX:b:t=|:problem
8r	.	8f#/L	2ryy	4D/	-xit	4d/	-xit	8f#/L	8f#/L
!LO:TX:a:t=|:problem	!	!	!	!	!	!	!	!LO:TX:b:t=|:problem	!LO:TX:b:t=|:problem
8D\L	.	8d/	.	.	.	.	.	8d/	8d/
!LO:TX:a:t=|:problem	!	!	!	!	!	!	!	!LO:TX:b:t=|:problem	!LO:TX:b:t=|:problem
8F#\	.	8f#/	.	4r	.	4r	.	8f#/	8f#/
!LO:TX:a:t=|:problem	!	!	!	!	!	!	!	!LO:TX:b:t=|:problem	!LO:TX:b:t=|:problem
8A\J	.	8a/J	.	.	.	.	.	8a/J	8a/J
!	!	!	!LO:LB:g=original	!	!	!	!	!	!
=3	=3	=3	=3:|!	=3	=3	=3	=3	=3	=3
!	!	!	!LO:TX:t=P:powtórka:problem	!	!	!	!	!	!
4d\	.	8d/ 8a/ 8ff#/	8d/yy 8a/yy 8ff#/yy	2d\	ter-	2dd\	ter-	4dd\	4dd\
!	!	!LO:TX:a:t=|:problem	!	!	!	!	!	!	!
.	.	8aa\L	8aa\Lyy	.	.	.	.	.	.
8r	.	8ff#\	8ff#\yy	.	.	.	.	8r	8r
!LO:TX:a:t=|:problem	!	!	!	!	!	!	!	!LO:TX:b:t=|:problem	!LO:TX:b:t=|:problem
8d\L	.	8dd\	8dd\yy	.	.	.	.	8dd/L	8dd/L
!LO:TX:a:t=|:problem	!	!	!	!	!	!	!	!LO:TX:b:t=|:problem	!LO:TX:b:t=|:problem
8A\	.	8a\	8a\	8A\	-ti	8a\	-ti-	8a/	8a/
!LO:TX:a:t=|:problem	!	!	!	!	!	!	!	!LO:TX:b:t=|:problem	!LO:TX:b:t=|:problem
8F#\J	.	8f#\J	8f#\J	8ryy	.	8f#/	-a	8f#/J	8f#/J
!	!	!	!	!LO:LB:g=original	!	!	!	!	!
=4	=4	=4	=4	=4	=4	=4	=4	=4	=4
4D\	.	8d/L	8d/Lyy	4D/	di-	4d/	di-	8d/L	8d/L
.	.	16d/L	16d/Lyy	.	.	.	.	16d/L	16d/L
.	.	16d/JJ	16d/JJyy	.	.	.	.	16d/JJ	16d/JJ
!	!	!	!	!	!	!	!	!LO:TX:b:t=|:problem	!LO:TX:b:t=|:problem
8r	.	8a/L	2ryy	4D/	-e	4d/	-e	8f#/L	8f#/L
!	!	!LO:TX:b:t=|:problem	!	!	!	!	!	!LO:TX:b:t=|:problem	!LO:TX:b:t=|:problem
8D\L	.	8d/	.	.	.	.	.	8d/	8d/
!	!	!LO:TX:b:t=|:problem	!	!	!	!	!	!LO:TX:b:t=|:problem	!LO:TX:b:t=|:problem
8F#\	.	8f#/	.	4r	.	4r	.	8f#/	8f#/
!	!	!LO:TX:b:t=|:problem	!	!	!	!	!	!LO:TX:b:t=|:problem	!LO:TX:b:t=|:problem
8A\J	.	8a/J	.	.	.	.	.	8a/J	8a/J
=5	=5	=5	=5	=5	=5	=5	=5	=5	=5
4d\	.	8d/ 8a/ 8ff#/	8d/ 8a/ 8ff#/	2d\	ſe-	2a\	se-	4dd\	4dd\
.	.	8aa\L	8aa\L	.	.	.	.	.	.
8D\L	.	8ff#\	8ff#\	.	.	.	.	4r	4r
8F#\	.	8dd\	8dd\	.	.	.	.	.	.
8A\	.	8a\	8a\	4d\	-cu(n)-	4a\	-cun-	4r	4r
8d\J	.	8f#\J	8f#\J	.	.	.	.	.	.
!	!	!LO:LB:g=original	!	!	!	!	!	!	!
=6	=6	=6	=6	=6	=6	=6	=6	=6	=6
!	!	!LO:TX:t=P:problem=mixed beam	!LO:TX:t=P:problem=mixed beam	!	!	!	!	!	!
4G\	.	8G/L	8G/L	4G\	-du(m)	4b\	-dum	4ee\	4gg\
.	.	8bb\	8bb\	.	.	.	.	.	.
.	.	.	.	.	.	.	.	.	8qqff#/
*2\right	*	*	*	*	*	*	*	*	*2\right
2A\	.	8gg\	8gg\	2A\	ſcri-	2cc#t\	scri-	2a/	2eeT\
.	.	8ee\	8ee\	.	.	.	.	.	.
.	.	8cc#\	8cc#\	.	.	.	.	.	.
.	.	8a\J	8a\J	.	.	.	.	.	.
!	!	!	!	!	!	!	!	!LO:LB:g=original	!LO:LB:g=original
=7	=7	=7	=7	=7	=7	=7	=7	=7	=7
4d\	.	8d/ 8a/ 8ff#/	8d/ 8a/ 8ff#/	4D/	-ptu-	4dd\	-ptu-	4dd\	4ff#\
!	!	!LO:TX:a:t=|:problem	!	!	!	!	!	!	!
.	.	8aa\L	8aa\L	.	.	.	.	.	.
!	!	!LO:TX:a:t=|:problem	!	!	!	!	!	!	!
8D\L	.	8ff#\	8ff#\	4D/	-ras	4dd\	-ras	4r	4r
!	!	!LO:TX:a:t=|:problem	!	!	!	!	!	!	!
8F#\	.	8dd\	8dd\	.	.	.	.	.	.
!	!	!LO:TX:a:t=|:problem	!	!	!	!	!	!	!
8A\	.	8a\	8a\	4r	.	4r	.	4r	4r
!	!	!LO:TX:a:t=|:problem	!	!	!	!	!	!	!
8d\J	.	8f#\J	8f#\J	.	.	.	.	.	.
=8	=8	=8	=8	=8	=8	=8	=8	=8	=8
!	!	!LO:TX:t=P:problem=mixed beam	!LO:TX:t=P:problem=mixed beam	!LO:TX:a:t=1	!	!	!	!	!
4G\	.	8G/L	8G/L	2.r	.	2.r	.	4ee\	4gg\
.	.	8bb\	8bb\	.	.	.	.	.	.
.	.	.	.	.	.	.	.	.	8qqff#/
2A\	.	8gg\	8gg\	.	.	.	.	2a/	2eeT\
.	.	8ee\	8ee\	.	.	.	.	.	.
.	.	8cc#\	8cc#\	.	.	.	.	.	.
.	.	8a\J	8a\J	.	.	.	.	.	.
=9	=9	=9	=9	=9	=9	=9	=9	=9	=9
!	!	!LO:TX:a:t=|:problem	!LO:TX:a:t=|:problem	!	!	!	!	!	!
4d\	.	8d/L	8ff#\L	8r	.	8ff#\	et	4f#/	4dd\
.	.	8f#/	(16aa\L	8d\	et	8ff#\	a-	.	.
.	.	.	16a\JJ)	.	.	.	.	.	.
!	!	!	!	!	!	!LO:LB:g=original	!	!	!
!	!	!LO:TX:a:t=|:problem	!LO:TX:a:t=|:problem	!	!	!	!	!	!
4c#\	6	8c#/	8ee\L	8c#\	i-	4ee\	-scen-	8a/L	8a/L
.	.	8e/	(16aa\L	8c#\	-te-	.	.	8a/	8a/
.	.	.	16a\JJ)	.	.	.	.	.	.
4B\	7	8B/	8dd\L	8B\	-rum	4dd\	-dit	8a/	8a/
.	.	8d/J	(16aa\L	8B\	ven-	.	.	8a/J	8a/J
.	.	.	16a\JJ)	.	.	.	.	.	.
=10	=10	=10	=10	=10	=10	=10	=10	=10	=10
4A\	8	8A/L	8cc#\L	4A\	-tu-	4cc#\	in	4a/	4a/
.	.	8c#/	(16aa\L	.	.	.	.	.	.
.	.	.	16a\JJ)	.	.	.	.	.	.
4B\	7	8B/	8dd\L	4B\	-rus	4dd\	cae-	4r	4r
.	.	8d/	16aa\L	.	.	.	.	.	.
.	.	.	16a\JJ	.	.	.	.	.	.
4c#\	6	8c#/	8ee\L	4c#\	est	4ee\	-lu(m)	4r	4r
.	.	8e/J	(16aa\L	.	.	.	.	.	.
.	.	.	16a\JJ)	.	.	.	.	.	.
=11	=11	=11	=11	=11	=11	=11	=11	=11	=11
4d\	.	8d/L	8ff#\L	4d\	cum	8ff#\	se-	4r	4r
.	.	8f#/	16aa\L	.	.	8ff#\	-det	.	.
.	.	.	16a\JJ	.	.	.	.	.	.
4c#\	6	8c#/	8ee\L	8c#\	glo-	4ee\	ad	8a/L	8a/L
.	.	8e/	16aa\L	8c#\	-ri-	.	.	8a/	8a/
.	.	.	16a\JJ	.	.	.	.	.	.
4B\	7	8B/	8dd\L	4B\	-a	8dd\	dex-	8a/	8a/
.	.	8d/J	16aa\L	.	.	8dd\	-te-	8a/J	8a/J
.	.	.	16a\JJ	.	.	.	.	.	.
=12	=12	=12	=12	=12	=12	=12	=12	=12	=12
4A\	8	8A/L	8cc#\L	8A\	ju-	4cc#\	-ra(m)	4a/	4a/
.	.	8c#/	16aa\L	8A\	-di-	.	.	.	.
.	.	.	16a\JJ	.	.	.	.	.	.
4B\	7	8B/	8dd\L	4B\	-ca-	4dd\	Pa-	4r	4r
.	.	8d/	16aa\L	.	.	.	.	.	.
.	.	.	16a\JJ	.	.	.	.	.	.
!LO:TX:t=P:problem=mixed beam	!	!	!	!	!	!	!	!	!
8c#\L	7	8c#/	8ee\L	4c#\	-re	4ee\	-tri	4r	4r
8C#/J	.	8e/J	16aa\L	.	.	.	.	.	.
.	.	.	16a\JJ	.	.	.	.	.	.
!	!	!	!LO:LB:g=original	!	!	!	!	!	!
=13	=13	=13	=13	=13	=13	=13	=13	=13	=13
4D/	5	8d/L	8ff#\L	(4d\	Vi	(4ff#\	cu-	4r	4r
.	.	8f#/	16aa\L	.	.	.	.	.	.
.	.	.	16a\JJ	.	.	.	.	.	.
4C#/	6	8c#/	8ee\L	4c#\)	.	4ee\)	.	8a/L	8a/L
.	.	8e/	16aa\L	.	.	.	.	8a/	8a/
.	.	.	16a\JJ	.	.	.	.	.	.
4BB/	7	8B/	8dd\L	4ryy	.	4dd\	-jus	8a/	8a/
.	.	8d/J	16aa\L	.	.	.	.	8a/J	8a/J
.	.	.	16a\JJ	.	.	.	.	.	.
!	!	!	!	!LO:PB:g=original	!	!	!	!	!
=14	=14	=14	=14	=14	=14	=14	=14	=14	=14
4AA/	8	16e/LL	16cc#\LL	4A\	vi-	4cc#\	re-	4a/	4a/
.	.	16a/	16a\	.	.	.	.	.	.
.	.	16b/	16b\	.	.	.	.	.	.
.	.	16cc#/JJ	16cc#\JJ	.	.	.	.	.	.
4BB/	7	16dd\LL	16dd\LL	4B\	-vos	4dd\	-gni	4r	4r
.	.	16ee\	16ee\	.	.	.	.	.	.
.	.	16ff#\	16ff#\	.	.	.	.	.	.
.	.	16gg#X\JJ	16gg#X\JJ	.	.	.	.	.	.
!	!	!LO:TX:t=P:problem=mixed beam	!	!	!	!	!	!	!
4C#/	6	8aa\L	8aa\L	4c#\	et	4ee\	non	4r	4r
.	.	8a/J	8ee\J	.	.	.	.	.	.
=15	=15	=15	=15	=15	=15	=15	=15	=15	=15
4D\	6	(32dd\LLL	(32ff#\LLL	4d\	mor-	8ff#\	e-	8dd\L	4ff#\
.	.	32cc#\JJ)	32ee\JJ)	.	.	.	.	.	.
.	.	8.b\J	8.dd\J	.	.	.	.	.	.
.	.	.	.	.	.	8dd\	-rit	8ff#\J	.
*	*	*	*	*	*	*	*	*2\right	*
2ryy	6 4	4a/	4cc#\	4e\	.	(4cc#\	fi-	2ee\	4aa\
.	.	4g#Xt/	4bT\	4E\	-tu-	4bT\)	.	.	4gg#X\
!LO:PB:g=original	!	!	!	!	!	!	!	!LO:LB:g=original	!
=16	=16	=16	=16	=16	=16	=16	=16	=16	=16
.	.	8qqg/	.	.	.	.	.	.	.
4AA/	.	4a/	4a/	4A\	-os	4a\	-nis.	4ee\	4aa\
!	!	!LO:LB:g=original	!	!	!	!	!	!	!
4r	.	4r	8r	4r	.	4r	.	4r	4r
.	.	.	8ff#\L	.	.	.	.	.	.
8r	.	8r	8ee\	4r	.	4r	.	4r	4r
8A\	4 2	8b/	8dd#X\J	.	.	.	.	.	.
=17	=17	=17	=17	=17	=17	=17	=17	=17	=17
!	!	!	!	!LO:TX:a:t=7	!	!LO:TX:a:t=7	!	!LO:TX:a:t=7	!LO:TX:a:t=7
.	.	.	8qqdd#X/	.	.	.	.	.	.
8G#X\L	6	8b/L	4.ee\	0.r	.	0.r	.	0.r	0.r
8F#\J	#	8a/J	.	.	.	.	.	.	.
4E\	3	4g#X/	.	.	.	.	.	.	.
.	.	.	8ddn\L	.	.	.	.	.	.
8r	.	8r	8cc#\	.	.	.	.	.	.
8F#\	4 3	8a/	8b#X\J	.	.	.	.	.	.
=18	=18	=18	=18	=18	=18	=18	=18	=18	=18
.	.	.	8qqccn/	.	.	.	.	.	.
8E\L	6 #3	8g#X/L	4.cc#X\	.	.	.	.	.	.
8D\J	.	8f#/J	.	.	.	.	.	.	.
4C#/	5	4e/	.	.	.	.	.	.	.
.	.	.	8bn/L	.	.	.	.	.	.
8r	.	8r	8a/	.	.	.	.	.	.
8D\	4 2	8e/	8g#X/J	.	.	.	.	.	.
=19	=19	=19	=19	=19	=19	=19	=19	=19	=19
8C#/L	6	(4e/	8.a/L	.	.	.	.	.	.
8AA/	.	.	.	.	.	.	.	.	.
.	.	.	16b/Jk	.	.	.	.	.	.
.	.	.	8qqcc#/	.	.	.	.	.	.
8D/	6	4f#/)	2bT/	.	.	.	.	.	.
8BB/J	.	.	.	.	.	.	.	.	.
!LO:TX:t=P:problem=mixed beam	!	!	!	!	!	!	!	!	!
8E\L	#	4g#Xt/	.	.	.	.	.	.	.
8EE/J	.	.	.	.	.	.	.	.	.
=20	=20	=20	=20	=20	=20	=20	=20	=20	=20
.	.	8qqg/	8qqb/	.	.	.	.	.	.
4AA/	.	4a/	4cc#\	.	.	.	.	.	.
4r	.	4r	8r	.	.	.	.	.	.
.	.	.	8ff#\L	.	.	.	.	.	.
8r	.	8r	8ee\	.	.	.	.	.	.
8A\	4 2	8b/	8dd#X\J	.	.	.	.	.	.
=21	=21	=21	=21	=21	=21	=21	=21	=21	=21
.	.	.	8qqdd#X/	.	.	.	.	.	.
8G#X\L	6	8b/L	4.ee\	1.r	.	1.r	.	1.r	1.r
8F#\J	3	8a/J	.	.	.	.	.	.	.
4E\	#	4g#X/	.	.	.	.	.	.	.
.	.	.	8ddn\L	.	.	.	.	.	.
8r	.	8r	8cc#\	.	.	.	.	.	.
8F#\	4 3	8a/	8b#X\J	.	.	.	.	.	.
!	!	!	!LO:LB:g=original	!	!	!	!	!	!
=22	=22	=22	=22	=22	=22	=22	=22	=22	=22
.	.	.	8qqb#X/	.	.	.	.	.	.
8E\L	6 #3	8g#X/L	4.cc#\	.	.	.	.	.	.
8D\J	5	8f#/J	.	.	.	.	.	.	.
4C#/	5	4e/	.	.	.	.	.	.	.
.	.	.	8bn/L	.	.	.	.	.	.
8r	.	8r	8a/	.	.	.	.	.	.
8D\	4 2	8e/	8g#X/J	.	.	.	.	.	.
!LO:LB:g=original	!	!	!	!	!	!	!	!	!
=23	=23	=23	=23	=23	=23	=23	=23	=23	=23
8C#/L	6	(4e/	8.a/L	2.r	.	2.r	.	2.r	2.r
8AA/	.	.	.	.	.	.	.	.	.
.	.	.	16b/Jk	.	.	.	.	.	.
.	.	.	8qqcc#/	.	.	.	.	.	.
8D/	6	4f#/)	2bT/	.	.	.	.	.	.
8BB/J	.	.	.	.	.	.	.	.	.
!LO:TX:t=P:problem=mixed beam	!	!LO:TX:b:t=|:problem	!	!	!	!	!	!	!
8E\L	#	4g#Xt/	.	.	.	.	.	.	.
8EE/J	.	.	.	.	.	.	.	.	.
!	!	!	!	!	!	!LO:LB:g=original	!	!	!LO:LB:g=original
=24	=24	=24	=24	=24	=24	=24	=24	=24	=24
4AA/	.	8A/ 8e/ 8a/	8A/ 8e/ 8a/	2A\	Et	2aa\	Et	4a/	4ee\
.	.	8ee\L	8ee\L	.	.	.	.	.	.
8r	.	8cc#\	8cc#\	.	.	.	.	8r	8r
8A\L	.	8a\	8a\	.	.	.	.	8a/L	8ee\L
8E\	.	8e\	8e\	(8E/L	in	(8ee\L	in	8a/	8ee\
8C#\J	.	8c#\J	8c#\J	8C#/J)	.	8cc#\J)	.	8a/J	8ee\J
=25	=25	=25	=25	=25	=25	=25	=25	=25	=25
4AA/	.	8A/L	8A/L	8AA/	Spi-	8a\	Spi-	2a/	2ee\
.	.	16A/L	16A/L	8AA/	-ri-	8a\	-ri-	.	.
.	.	16A/JJ	16A/JJ	.	.	.	.	.	.
8r	.	8c#/L	8c#/L	4AA/	-tum	4a\	-tum	.	.
8AA/L	.	8A/	8A/	.	.	.	.	.	.
8C#/	.	8c#/	8c#/	4r	.	4r	.	4r	4r
8E/J	.	8e/J	8e/J	.	.	.	.	.	.
=26	=26	=26	=26	=26	=26	=26	=26	=26	=26
4A\	.	8A/ 8e/ 8a/	8A/ 8e/ 8a/	4.A\	et	2aa\	San-	4a/	4ee\
!	!	!	!LO:TX:a:t=|:problem	!	!	!	!	!	!
.	.	8ee\L	8ee\L	.	.	.	.	.	.
!	!	!	!LO:TX:a:t=|:problem	!	!	!	!	!	!
8r	.	8cc#\	8cc#\	.	.	.	.	8r	8r
!	!	!	!LO:TX:a:t=|:problem	!	!	!	!	!	!
8A\L	.	8a\	8a\	8A\	vi-	.	.	8a/L	8ee\L
!	!	!	!LO:TX:a:t=|:problem	!	!	!	!	!	!
8E\	.	8e\	8e\	8E\	-vi-	(8ee\L	-ctum	8a/	8ee\
!	!	!	!LO:TX:a:t=|:problem	!	!	!	!	!	!
8C#\J	.	8c#\J	8c#\J	8C#\	-fi-	8cc#\J)	.	8a/J	8ee\J
=27	=27	=27	=27	=27	=27	=27	=27	=27	=27
4AA/	.	8A/L	8A/L	4AA/	-can-	8a\	Do-	2a/	2ee\
.	.	16A/L	16A/L	.	.	8a\	-mi-	.	.
.	.	16A/JJ	16A/JJ	.	.	.	.	.	.
!	!	!LO:LB:g=original	!	!	!	!	!	!	!
8r	.	8c#/L	8c#/L	4AA/	-tem	4a\	-num	.	.
8AA/L	.	8A/	8A/	.	.	.	.	.	.
8C#/	.	8c#/	8c#/	4r	.	4r	.	4r	4r
8E/J	.	8e/J	8e/J	.	.	.	.	.	.
=28	=28	=28	=28	=28	=28	=28	=28	=28	=28
4A\	.	16a/LL	8A/ 8e/ 8a/	2E\	qui	2cc#\	qui	2.a/	2.ee\
.	.	16e/	.	.	.	.	.	.	.
!	!	!	!LO:TX:a:t=|:problem	!	!	!	!	!	!
.	.	16c#/	8ee\L	.	.	.	.	.	.
.	.	16e/JJ	.	.	.	.	.	.	.
!	!	!	!LO:TX:a:t=|:problem	!	!	!	!	!	!
4AA/	.	16a/LL	8cc#\	.	.	.	.	.	.
.	.	16e/	.	.	.	.	.	.	.
!	!	!	!LO:TX:a:t=|:problem	!	!	!	!	!	!
.	.	16c#/	8a\	.	.	.	.	.	.
.	.	16e/JJ	.	.	.	.	.	.	.
!	!	!	!LO:TX:a:t=|:problem	!	!	!	!	!	!
4AA/	.	16a/LL	8e\	4E\	ex	4cc#\	ex	.	.
.	.	16e/	.	.	.	.	.	.	.
!	!	!	!LO:TX:a:t=|:problem	!	!	!	!	!	!
.	.	16c#/	8c#\J	.	.	.	.	.	.
.	.	16e/JJ	.	.	.	.	.	.	.
!	!	!	!	!LO:LB:g=original	!	!	!	!	!
=29	=29	=29	=29	=29	=29	=29	=29	=29	=29
4AA/	6 4	16a/LL	8A/ 8f#/ 8a/	2F#\	Pa-	2dd\	Pa-	2.dd\	2.ff#\
.	.	16f#/	.	.	.	.	.	.	.
!	!	!	!LO:TX:a:t=|:problem	!	!	!	!	!	!
.	.	16d/	8ff#\L	.	.	.	.	.	.
.	.	16f#/JJ	.	.	.	.	.	.	.
!	!	!	!LO:TX:a:t=|:problem	!	!	!	!	!	!
4AA/	.	16a/LL	8dd\	.	.	.	.	.	.
.	.	16f#/	.	.	.	.	.	.	.
!	!	!	!LO:TX:a:t=|:problem	!	!	!	!	!	!
.	.	16d/	8a\	.	.	.	.	.	.
.	.	16f#/JJ	.	.	.	.	.	.	.
!	!	!	!LO:TX:a:t=|:problem	!	!	!	!	!	!
4AA/	.	16a/LL	8f#\	4F#\	-tre	4dd\	-tre	.	.
.	.	16f#/	.	.	.	.	.	.	.
!	!	!	!LO:TX:a:t=|:problem	!	!	!	!	!	!
.	.	16d/	8d\J	.	.	.	.	.	.
.	.	16f#/JJ	.	.	.	.	.	.	.
=30	=30	=30	=30	=30	=30	=30	=30	=30	=30
4AA/	7 3	16a/LL	8A/ 8e/ 8a/	8G\	fi-	8ee\	fi-	2.ee\	2.gg\
.	.	16e/	.	.	.	.	.	.	.
!	!	!	!LO:TX:a:t=|:problem	!	!	!	!	!	!
.	.	16c#/	8gg\L	8G\	-li-	8ee\	-li-	.	.
.	.	16e/JJ	.	.	.	.	.	.	.
!	!	!	!LO:TX:a:t=|:problem	!	!	!	!	!	!
4AA/	.	16a/LL	8ee\	4G\	-o-	4ee\	-o-	.	.
.	.	16e/	.	.	.	.	.	.	.
!	!	!	!LO:TX:a:t=|:problem	!	!	!	!	!	!
.	.	16c#/	8cc#\	.	.	.	.	.	.
.	.	16e/JJ	.	.	.	.	.	.	.
!	!	!	!LO:TX:a:t=|:problem	!	!	!	!	!	!
4AA/	.	16a/LL	8g\	8G\	-q(ue)	8ee\	-q(ue)	.	.
.	.	16e/	.	.	.	.	.	.	.
!	!	!	!LO:TX:a:t=|:problem	!	!	!	!	!	!
.	.	16c#/	8e\J	8G\	pro-	8ee\	pro-	.	.
.	.	16e/JJ	.	.	.	.	.	.	.
!LO:LB:g=original	!	!	!	!	!	!	!	!	!
=31	=31	=31	=31	=31	=31	=31	=31	=31	=31
4D\	3	8d/ 8a/ 8ff#/	8d/ 8a/ 8ff#/	4F#\	-ce-	4dd\	-ce-	4dd\	4ff#\
!	!	!	!LO:TX:a:t=|:problem	!	!	!	!	!	!
.	.	8aa\L	8aa\L	.	.	.	.	.	.
!	!	!	!LO:TX:a:t=|:problem	!	!	!	!	!	!
8r	.	8ff#\	8ff#\	4F#\	-dit	4dd\	-dit	8r	8r
!LO:TX:a:t=|:problem	!	!	!LO:TX:a:t=|:problem	!	!	!	!	!LO:TX:b:t=|:problem	!LO:TX:b:t=|:problem
8d\L	.	8dd\	8dd\	.	.	.	.	8dd/L	8dd/L
!LO:TX:a:t=|:problem	!	!	!LO:TX:a:t=|:problem	!	!	!	!	!LO:TX:b:t=|:problem	!LO:TX:b:t=|:problem
8A\	.	8a\	8a\	4r	.	4r	.	8a/	8a/
!LO:TX:a:t=|:problem	!	!	!LO:TX:a:t=|:problem	!	!	!	!	!LO:TX:b:t=|:problem	!LO:TX:b:t=|:problem
8F#\J	.	8f#\J	8f#\J	.	.	.	.	8f#/J	8f#/J
!	!	!	!	!	!	!LO:LB:g=original	!	!LO:LB:g=original	!
=32	=32	=32	=32	=32	=32	=32	=32	=32	=32
4D\	.	8d/L	8d/L	2d\	qui	2dd\	Qui	8d/L	8d/L
.	.	16d/L	16d/L	.	.	.	.	16d/L	16d/L
.	.	16d/JJ	16d/JJ	.	.	.	.	16d/JJ	16d/JJ
8r	.	8f#/L	8f#/L	.	.	.	.	8f#/L	8f#/L
!LO:TX:a:t=|:problem	!	!	!	!	!	!	!	!LO:TX:b:t=|:problem	!LO:TX:b:t=|:problem
8D\L	.	8d/	8d/	.	.	.	.	8d/	8d/
!LO:TX:a:t=|:problem	!	!	!	!	!	!	!	!LO:TX:b:t=|:problem	!LO:TX:b:t=|:problem
8F#\	.	8f#/	8f#/	4A\	cum	4a\	cum	8f#/	8f#/
!LO:TX:a:t=|:problem	!	!	!	!	!	!	!	!LO:TX:b:t=|:problem	!LO:TX:b:t=|:problem
8A\J	.	8a/J	8a/J	.	.	.	.	8a/J	8a/J
!	!	!	!LO:LB:g=original	!	!	!	!	!	!
=33	=33	=33	=33	=33	=33	=33	=33	=33	=33
4d\	.	8d/ 8a/ 8ff#/	8d/ 8a/ 8ff#/	8F#\	fi-	4f#/	Pa-	4dd\	4dd\
!	!	!	!LO:TX:a:t=|:problem	!	!	!	!	!	!
.	.	8aa\L	8aa\L	8F#\	-li-	.	.	.	.
!	!	!	!LO:TX:a:t=|:problem	!	!	!	!	!	!
8r	.	8ff#\	8ff#\	4D\	-o	4d/	-tre	8r	8r
!LO:TX:a:t=|:problem	!	!	!LO:TX:a:t=|:problem	!	!	!	!	!	!LO:TX:b:t=|:problem
8d\L	.	8dd\	8dd\	.	.	.	.	8dd/L	8dd/L
!LO:TX:a:t=|:problem	!	!	!	!	!	!	!	!	!LO:TX:b:t=|:problem
8A\	.	8a\	8a\	4r	.	4r	.	8a/	8a/
!LO:TX:a:t=|:problem	!	!	!LO:TX:a:t=|:problem	!	!	!	!	!	!LO:TX:b:t=|:problem
8F#\J	.	8f#\J	8f#\J	.	.	.	.	8f#/J	8f#/J
=34	=34	=34	=34	=34	=34	=34	=34	=34	=34
4D\	.	8d/L	8d/L	4d\	et	4.dd\	si-	8d/L	8d/L
.	.	16d/L	16d/L	.	.	.	.	16d/L	16d/L
.	.	16d/JJ	16d/JJ	.	.	.	.	16d/JJ	16d/JJ
8r	.	8f#/L	8f#/L	8d\	con-	.	.	8f#/L	8f#/L
!LO:TX:a:t=|:problem	!	!	!	!	!	!	!	!	!LO:TX:b:t=|:problem
8D\L	.	8d/	8d/	8d\	-glo-	8dd\	-mul	8d/	8d/
!LO:TX:a:t=|:problem	!	!	!	!	!	!	!	!	!LO:TX:b:t=|:problem
8F#\	.	8f#/	8f#/	8A\	-ri-	8a\	a-	8f#/	8f#/
!LO:TX:a:t=|:problem	!	!	!	!	!	!	!	!	!LO:TX:b:t=|:problem
8A\J	.	8a/J	8a/J	8A\	-fi-	8a\	-do-	8a/J	8a/J
!	!	!	!	!	!	!	!	!	!LO:LB:g=original
=35	=35	=35	=35	=35	=35	=35	=35	=35	=35
!LO:TX:a:t=|:problem	!	!	!	!	!	!	!	!	!
4d\	.	16dd\LL	8d/ 8a/ 8ff#/	4F#\	-ca-	4f#/	-ra-	4d/	4d/
.	.	16a\	.	.	.	.	.	.	.
!	!	!	!LO:TX:a:t=|:problem	!	!	!	!	!	!
.	.	16f#\	8aa\L	.	.	.	.	.	.
.	.	16a\JJ	.	.	.	.	.	.	.
!	!	!	!LO:TX:a:t=|:problem	!	!	!	!	!	!
4D\	.	16dd\LL	8ff#\	4D\	-tur	4d/	-tur	4r	4r
.	.	16a\	.	.	.	.	.	.	.
!	!	!	!LO:TX:a:t=|:problem	!	!	!	!	!	!
.	.	16f#\	8dd\	.	.	.	.	.	.
.	.	16a\JJ	.	.	.	.	.	.	.
!	!	!	!LO:TX:a:t=|:problem	!	!	!	!	!	!
4D\	.	16dd\LL	8a\	4r	.	4r	.	4r	4r
.	.	16a\	.	.	.	.	.	.	.
!	!	!	!LO:TX:a:t=|:problem	!	!	!	!	!	!
.	.	16f#\	8f#\J	.	.	.	.	.	.
.	.	16a\JJ	.	.	.	.	.	.	.
!	!	!LO:LB:g=original	!	!	!	!	!	!	!
=36	=36	=36	=36	=36	=36	=36	=36	=36	=36
4D\	6 4	16dd\LL	8d\ 8b\ 8gg\	8G\	qui	8b\	qui	4d/	4d/
.	.	16b\	.	.	.	.	.	.	.
!	!	!	!LO:TX:a:t=|:problem	!	!	!	!	!	!
.	.	16g\	8bb\L	8G\	lo-	8b\	lo-	.	.
.	.	16b\JJ	.	.	.	.	.	.	.
!	!	!	!LO:TX:a:t=|:problem	!	!	!	!	!	!
4D\	.	16dd\LL	8gg\	8G\	-cu-	8b\	-cu-	4r	4r
.	.	16b\	.	.	.	.	.	.	.
!	!	!	!LO:TX:a:t=|:problem	!	!	!	!	!	!
.	.	16g\	8dd\	8G\	-t(us)	8b\	-tus	.	.
.	.	16b\JJ	.	.	.	.	.	.	.
!	!	!	!LO:TX:a:t=|:problem	!	!	!	!	!	!
4D\	.	16dd\LL	8b\	4G\	es	4b\	es	4r	4r
.	.	16b\	.	.	.	.	.	.	.
!	!	!	!LO:TX:a:t=|:problem	!	!	!	!	!	!
.	.	16g\	8g\J	.	.	.	.	.	.
.	.	16b\JJ	.	.	.	.	.	.	.
!	!	!	!	!LO:LB:g=original	!	!	!	!	!
=37	=37	=37	=37	=37	=37	=37	=37	=37	=37
4D\	7 3	16dd\LL	8d/ 8a/ 8ff#/	8A\	p(er)	8ccn\	per	4d/	4d/
.	.	16a\	.	.	.	.	.	.	.
!	!	!	!LO:TX:a:t=|:problem	!	!	!	!	!	!
.	.	16f#\	8cccn\L	8A\	Pro-	8cc\	Pro-	.	.
.	.	16a\JJ	.	.	.	.	.	.	.
!	!	!	!LO:TX:a:t=|:problem	!	!	!	!	!	!
4D\	.	16dd\LL	8aa\	4A\	-phe-	4cc\	-phe-	4r	4r
.	.	16a\	.	.	.	.	.	.	.
!	!	!	!LO:TX:a:t=|:problem	!	!	!	!	!	!
.	.	16f#\	8ff#\	.	.	.	.	.	.
.	.	16a\JJ	.	.	.	.	.	.	.
!	!	!	!LO:TX:a:t=|:problem	!	!	!	!	!	!
4D\	.	16dd\LL	8ccn\	4A\	-tas	4cc\	-tas	4r	4r
.	.	16a\	.	.	.	.	.	.	.
!	!	!	!LO:TX:a:t=|:problem	!	!	!	!	!	!
.	.	16f#\	8a\J	.	.	.	.	.	.
.	.	16a\JJ	.	.	.	.	.	.	.
=38	=38	=38	=38	=38	=38	=38	=38	=38	=38
*	*	*^	*	*	*	*	*	*	*
!LO:TX:t=P:problem=mixed beam	!	!	!	!	!	!	!	!	!	!
8GG/L	.	16d/LL	16B\LL	8g/	4G\	et	4b\	et	[2.gg\	[2.bb\
.	.	16r	16G\	.	.	.	.	.	.	.
8G\	.	16d/	16A\	4b/	.	.	.	.	.	.
.	.	16r	16G\	.	.	.	.	.	.	.
8GG/	.	16d/	16B\	.	4B\	u-	4gg\	u-	.	.
.	.	16r	16G\	.	.	.	.	.	.	.
8G\	.	16d/	16B\	4dd\	.	.	.	.	.	.
.	.	16r	16G\	.	.	.	.	.	.	.
8GG/J	.	16d/	16B\	.	4B\	-na(m)	4gg\	-na(m)	.	.
.	.	16r	16G\	.	.	.	.	.	.	.
8ryy	.	16d/JJ	16B\	[8gg\	.	.	.	.	.	.
.	.	16ryy	16G\JJ	.	.	.	.	.	.	.
!LO:LB:g=original	!	!	!	!	!	!	!	!	!	!
=39	=39	=39	=39	=39	=39	=39	=39	=39	=39	=39
!LO:TX:t=P:problem=mixed beam	!	!	!	!	!	!	!	!	!	!
8GG/L	.	8d/L	16B\LL	8gg\]	2B\	S(an)-	2gg\	S(an)-	2.gg\]	2.bb\]
.	.	.	16G\	.	.	.	.	.	.	.
8G\	.	8d/	16A\	4bb\	.	.	.	.	.	.
.	.	.	16G\JJ	.	.	.	.	.	.	.
8GG/	.	8d/	16B\LL	.	.	.	.	.	.	.
.	.	.	16G\	.	.	.	.	.	.	.
8G\	.	8d/	16B\	4ddd\	.	.	.	.	.	.
.	.	.	16G\JJ	.	.	.	.	.	.	.
8GG/	.	8d/	16B\LL	.	4B\	-ct(a)m	4gg\	-ctam	.	.
.	.	.	16G\	.	.	.	.	.	.	.
8G\J	.	8d/J	16B\	8bb\	.	.	.	.	.	.
.	.	.	16G\JJ	.	.	.	.	.	.	.
!	!	!	!LO:LB:g=original	!	!	!	!LO:LB:g=original	!	!	!
=40	=40	=40	=40	=40	=40	=40	=40	=40	=40	=40
8D\L	.	16a/LL	16f#\LL	8f#/	4A\	et	2.ff#\	Ca-	[2.ff#\	[2.aa\
.	.	16r	16d\	.	.	.	.	.	.	.
8d\	.	16a/	16f#\	4a/	.	.	.	.	.	.
.	.	16r	16d\	.	.	.	.	.	.	.
8D\	.	16a/	16f#\	.	4A\	A-	.	.	.	.
.	.	16r	16d\	.	.	.	.	.	.	.
8d\	.	16a/	16f#\	4dd\	.	.	.	.	.	.
.	.	16r	16d\	.	.	.	.	.	.	.
8D\	.	16a/	16f#\	.	4A\	-po-	.	.	.	.
.	.	16r	16d\	.	.	.	.	.	.	.
8d\J	.	16a/JJ	16f#\	[8ff#\	.	.	.	.	.	.
.	.	16ryy	16d\JJ	.	.	.	.	.	.	.
=41	=41	=41	=41	=41	=41	=41	=41	=41	=41	=41
8D\L	.	16a/LL	16f#\LL	8ff#\]	4.A\	-ſto-	4.ff#\	-tho-	2.ff#\]	2.aa\]
.	.	16r	16d\	.	.	.	.	.	.	.
8d\	.	16a/	16f#\	4aa\	.	.	.	.	.	.
.	.	16r	16d\	.	.	.	.	.	.	.
8D\	.	16a/	16f#\	.	.	.	.	.	.	.
.	.	16r	16d\	.	.	.	.	.	.	.
8d\	.	16a/	16f#\	4ddd\	8A\	-li-	8ff#\	-li-	.	.
.	.	16r	16d\	.	.	.	.	.	.	.
8D\	.	16a/	16f#\	.	4A\	-cam	4ff#\	-cam	.	.
.	.	16r	16d\	.	.	.	.	.	.	.
8d\J	.	16a/JJ	16f#\	8aa\	.	.	.	.	.	.
.	.	16r	16d\JJ	.	.	.	.	.	.	.
!	!	!	!	!	!	!	!	!	!LO:LB:g=original	!
=42	=42	=42	=42	=42	=42	=42	=42	=42	=42	=42
!LO:TX:t=P:problem=mixed beam	!	!	!	!	!	!	!	!	!	!
8AA/L	.	16ee/LL	16cc#\LL	8e/	2.G\	Ec-	2.ee\	Ec-	[2.ee\	[2.gg\
.	.	16r	16a\	.	.	.	.	.	.	.
8A\	.	16ee/	16cc#\	4g/	.	.	.	.	.	.
.	.	16r	16a\	.	.	.	.	.	.	.
8AA/	.	16ee/	16cc#\	.	.	.	.	.	.	.
.	.	16r	16a\	.	.	.	.	.	.	.
8A\	.	16ee/	16cc#\	4cc#\	.	.	.	.	.	.
.	.	16r	16a\	.	.	.	.	.	.	.
8AA/	.	16ee/	16cc#\	.	.	.	.	.	.	.
.	.	16r	16a\	.	.	.	.	.	.	.
8A\J	.	16ee/JJ	16cc#\	[8ee\	.	.	.	.	.	.
.	.	16ryy	16a\JJ	.	.	.	.	.	.	.
=43	=43	=43	=43	=43	=43	=43	=43	=43	=43	=43
!LO:TX:t=P:problem=mixed beam	!	!	!	!	!	!	!	!	!	!
8AA/L	7	16ee/LL	16cc#\LL	8ee\]	4.G\	-cle-	4.ee\	-cle-	2.ee\]	2.gg\]
.	.	16r	16a\	.	.	.	.	.	.	.
8A\J	.	16ee/J	16cc#\	4gg\	.	.	.	.	.	.
.	.	16r	16a\JJ	.	.	.	.	.	.	.
!LO:TX:t=P:problem=mixed beam	!	!	!	!	!	!	!	!	!	!
8AA/L	.	8ee/	16cc#\LL	.	.	.	.	.	.	.
.	.	.	16a\	.	.	.	.	.	.	.
8A\J	.	8ee/	16cc#\	4bb\	8G\	-si-	8ee\	-si-	.	.
.	.	.	16a\JJ	.	.	.	.	.	.	.
!LO:TX:t=P:problem=mixed beam	!	!	!	!	!	!	!	!	!	!
8AA/L	.	8ee/	16cc#\LL	.	4G\	-am	4ee\	-am	.	.
.	.	.	16a\	.	.	.	.	.	.	.
8A\J	.	8ee/J	16cc#\	8gg\	.	.	.	.	.	.
.	.	.	16a\JJ	.	.	.	.	.	.	.
*	*	*v	*v	*	*	*	*	*	*	*
=44	=44	=44	=44	=44	=44	=44	=44	=44	=44
!	!	!	!LO:TX:a:t=|:problem	!	!	!	!	!	!
4D/	5	8d/L	8ff#\L	(8F#\L	Con-	(8dd\L	Con-	4dd\	4ff#\
.	.	8f#/	(16aa\L	8d\J)	.	8ff#\J)	.	.	.
.	.	.	16a\JJ)	.	.	.	.	.	.
!	!	!	!LO:LB:g=original	!	!	!	!	!	!
!	!	!	!LO:TX:a:t=|:problem	!	!	!	!	!	!
4C#/	6	8c#/	8ee\L	8c#\	-fi-	8ee\	-fi-	8a/L	8a/L
.	.	8e/	(16aa\L	8c#\	-te-	8ee\	-te-	8a/	8a/
.	.	.	16a\JJ)	.	.	.	.	.	.
!	!	!	!LO:TX:a:t=|:problem	!	!	!	!	!	!
4BB/	7	8B/	8dd\L	8B\	-or	8dd\	-or	8a/	8a/
.	.	8d/J	(16aa\L	8B\	u-	8dd\	u-	8a/J	8a/J
.	.	.	16a\JJ)	.	.	.	.	.	.
=45	=45	=45	=45	=45	=45	=45	=45	=45	=45
!	!	!	!LO:TX:a:t=|:problem	!	!	!	!	!	!
4AA/	8	8A/L	8cc#\L	8A\	-nu(m)	8cc#\	-num	4a/	4a/
.	.	8c#/	(16aa\L	8A\	Bap-	8cc#\	Bap-	.	.
.	.	.	16a\JJ)	.	.	.	.	.	.
!	!	!	!LO:TX:a:t=|:problem	!	!	!	!	!	!
4BB/	7	8B/	8dd\L	4B\	-ti-	4dd\	-ti-	4r	4r
.	.	8d/	(16aa\L	.	.	.	.	.	.
.	.	.	16a\JJ)	.	.	.	.	.	.
!	!	!	!LO:TX:a:t=|:problem	!	!	!	!	!	!
4C#/	6	8c#/	8ee\L	8c#\	-ſma	8ee\	-ſma	4r	4r
.	.	8e/J	(16aa\L	8c#\	in	8ee\	in	.	.
.	.	.	16a\JJ)	.	.	.	.	.	.
!	!	!LO:LB:g=original	!	!LO:LB:g=original	!	!	!	!	!
=46	=46	=46	=46	=46	=46	=46	=46	=46	=46
!	!	!	!LO:TX:a:t=|:problem	!	!	!	!	!	!
4D/	5	8d/L	8ff#\L	8d\	re-	8ff#\	re-	4r	4r
.	.	8f#/	(16aa\L	16d\	-miſ-	16ff#\	-miſ	.	.
.	.	.	16a\JJ)	16d\	-si-	16ff#\	ſi-	.	.
!	!	!	!LO:TX:a:t=|:problem	!	!	!	!	!	!
4C#/	6	8c#/	8ee\L	8c#\	-o-	8ee\	-o-	8a/L	8a/L
.	.	8e/	(16aa\L	8c#\	-nem	8ee\	-nem	8a/	8a/
.	.	.	16a\JJ)	.	.	.	.	.	.
!	!	!	!LO:TX:a:t=|:problem	!	!	!	!	!	!
4BB/	7	8B/	8dd\L	8B\	pe-	8dd\	pec-	8a/	8a/
.	.	8d/J	(16aa\L	8B\	-ca-	8dd\	-ca-	8a/J	8a/J
.	.	.	16a\JJ)	.	.	.	.	.	.
!	!	!	!	!	!	!LO:LB:g=original	!	!	!
=47	=47	=47	=47	=47	=47	=47	=47	=47	=47
!	!	!	!LO:TX:a:t=|:problem	!	!	!	!	!	!
4AA/	8	8A/L	8cc#\L	(4A\	-to-	(4cc#\	-to-	4a/	4a/
.	.	8c#/	(16aa\L	.	.	.	.	.	.
.	.	.	16a\JJ)	.	.	.	.	.	.
!	!	!	!LO:TX:a:t=|:problem	!	!	!	!	!	!
4r	.	8B/	8dd\L	4B\)	.	4dd\)	.	4r	4r
.	.	8d/	(16aa\L	.	.	.	.	.	.
.	.	.	16a\JJ)	.	.	.	.	.	.
!	!	!	!LO:TX:a:t=|:problem	!	!	!	!	!	!
4r	.	8c#/	8ee\L	4A\	-rum	4cc#\	-rum	4r	4r
.	.	8A/J	(16aa\L	.	.	.	.	.	.
.	.	.	16a\JJ)	.	.	.	.	.	.
!LO:LB:g=original	!	!	!	!	!	!	!	!	!LO:LB:g=original
=48	=48	=48	=48	=48	=48	=48	=48	=48	=48
!	!	!	!LO:TX:t=P:problem=mixed beam	!	!	!	!	!	!
!	!	!	!LO:TX:a:t=|:problem	!	!	!	!	!	!
4G\	5	8G/L	8b\L	8G\	et	8b\	et	4r	4r
.	.	8b/	(16dd\L	8G\	ex-	8b\	exs-	.	.
.	.	.	16d/JJ)	.	.	.	.	.	.
!	!	!	!LO:TX:t=P:problem=mixed beam	!	!	!	!	!	!
4F#\	6	8f#/	8a\L	4F#\	-pe-	4a\	-pe-	8d/L	8d/L
.	.	8a/	(16dd\L	.	.	.	.	8d/	8d/
.	.	.	16d/JJ)	.	.	.	.	.	.
!	!	!	!LO:TX:t=P:problem=mixed beam	!	!	!	!	!	!
!	!	!	!LO:TX:a:t=|:problem	!	!	!	!	!	!
4E\	7	8e/	8g\L	4E\	-cto	4g\	-cto	8d/	8d/
.	.	8g/J	(16dd\L	.	.	.	.	8d/J	8d/J
.	.	.	16d/JJ)	.	.	.	.	.	.
=49	=49	=49	=49	=49	=49	=49	=49	=49	=49
!	!	!	!LO:TX:t=P:problem=mixed beam	!	!	!	!	!	!
!	!	!	!LO:TX:a:t=|:problem	!	!	!	!	!	!
4D\	8	8d/L	8f#\L	8D\	re-	8f#/	re-	4d/	4d/
.	.	8f#/	(16dd\L	8D\	-sur-	8f#/	-sur-	.	.
.	.	.	16d/JJ)	.	.	.	.	.	.
!	!	!	!LO:TX:t=P:problem=mixed beam	!	!	!	!	!	!
4E\	7	8e/	8g\L	8E\	-re-	8g/	-re-	4r	4r
.	.	8g/	(16dd\L	8E\	-cti-	8g/	-cti-	.	.
.	.	.	16d/JJ)	.	.	.	.	.	.
!	!	!	!LO:TX:t=P:problem=mixed beam	!	!	!	!	!	!
!	!	!	!LO:TX:a:t=|:problem	!	!	!	!	!	!
4F#\	6	8f#/	8a\L	8F#\	-o-	8a\	-o-	4r	4r
.	.	8a/J	(16dd\L	8F#\	-nem	8a\	-nem	.	.
.	.	.	16d/JJ)	.	.	.	.	.	.
=50	=50	=50	=50	=50	=50	=50	=50	=50	=50
!	!	!	!LO:TX:t=P:problem=mixed beam	!	!	!	!	!	!
!	!	!	!LO:TX:a:t=|:problem	!	!	!	!	!	!
4G\	5	8g/L	8b\L	(4G\	mor-	(4b\	mor-	4r	4r
.	.	8b/	(16dd\L	.	.	.	.	.	.
.	.	.	16d/JJ)	.	.	.	.	.	.
!	!	!	!LO:TX:t=P:problem=mixed beam	!	!	!	!	!	!
!	!	!	!LO:TX:a:t=|:problem	!	!	!	!	!	!
4F#\	6	8f#/	8a\L	4F#\)	.	4a\)	.	8d/L	8d/L
.	.	8a/	(16dd\L	.	.	.	.	8d/	8d/
.	.	.	16d/JJ)	.	.	.	.	.	.
!	!	!	!LO:TX:t=P:problem=mixed beam	!LO:TX:a:t=|:problem	!	!	!	!	!
4E\	7	8e/	8g\L	4E\	-tu-	4g\	-tu-	8d/	8d/
.	.	8g/J	(16dd\L	.	.	.	.	8d/J	8d/J
.	.	.	16d/JJ)	.	.	.	.	.	.
!	!	!	!	!	!	!	!	!LO:LB:g=original	!
=51	=51	=51	=51	=51	=51	=51	=51	=51	=51
!	!	!	!LO:TX:t=P:problem=mixed beam	!	!	!	!	!	!
4D\	8	16f#\LL	16f#/LL	(4D\	-o-	(4f#/	-o-	4d/	4d/
.	.	16dd\	16dd\	.	.	.	.	.	.
.	.	16ee\	16ee\	.	.	.	.	.	.
.	.	16ff#\JJ	16ff#\JJ	.	.	.	.	.	.
!	!	!	!LO:LB:g=original	!	!	!	!	!	!
4E\	6	16gg\LL	16gg\LL	4E\)	.	4g/)	.	4r	4r
.	.	16aa\	16aa\	.	.	.	.	.	.
.	.	16bb\	16bb\	.	.	.	.	.	.
.	.	16ccc#\JJ	16ccc#\JJ	.	.	.	.	.	.
!	!	!	!	!LO:TX:a:t=|:problem	!	!	!	!	!
4F#\	6	8ddd\L	8ddd\L	4F#\	-rum	4a\	-rum	4ff#\	4aa\
.	.	8dd\J	8aa\J	.	.	.	.	.	.
=52	=52	=52	=52	=52	=52	=52	=52	=52	=52
4G\	6	(32gg\LLL	(32bb\LLL	4G\	et	4b\	ex-	4ee\	4gg\
.	.	32ff#\JJ	32aa\JJ	.	.	.	.	.	.
.	.	8.ee\J)	8.gg\J)	.	.	.	.	.	.
4A\	6 4	4dd\	4ff#\	2A\	expec-	(4dd\	-spe-	4dd\	4ff#\
4AA/	7 3	4cc#t\	4eeT\	.	.	4cc#\)	.	8.a/L	8.eeT\L
.	.	.	.	.	.	.	.	16f#/Jk	16dd\Jk
!	!	!	!	!LO:LB:g=original	!	!	!	!	!
=53	=53	=53	=53	=53	=53	=53	=53	=53	=53
4DD/	.	8d/ 8a/ 8ff#/	8d/ 8a/ 8ff#/	2D/	-to	2dd\	-cto	2f#/	2dd\
!	!	!	!LO:TX:a:t=|:problem	!	!	!	!	!	!
.	.	8aa\L	8aa\L	.	.	.	.	.	.
!	!	!	!LO:TX:a:t=|:problem	!	!	!	!	!	!
8D\L	.	8ff#\	8ff#\	.	.	.	.	.	.
!	!	!	!LO:TX:a:t=|:problem	!	!	!	!	!	!
8F#\	.	8dd\	8dd\	.	.	.	.	.	.
!	!	!	!LO:TX:a:t=|:problem	!	!	!	!	!	!
8A\	.	8a\	8a\	4r	.	4r	.	4r	4r
!	!	!	!LO:TX:a:t=|:problem	!	!	!	!	!	!
8d\J	.	8f#\J	8f#\J	.	.	.	.	.	.
!	!	!LO:LB:g=original	!	!	!	!LO:LB:g=original	!	!	!
=54	=54	=54	=54	=54	=54	=54	=54	=54	=54
!	!	!LO:TX:t=P:problem=mixed beam	!LO:TX:t=P:problem=mixed beam	!LO:TX:a:t=1	!	!	!	!LO:TX:a:t=1	!LO:TX:a:t=1
4G\	.	8G/L	8G/L	2.r	.	2.r	.	2.r	2.r
.	.	8bb\	8bb\	.	.	.	.	.	.
2A\	7	8gg\	8gg\	.	.	.	.	.	.
.	.	8ee\	8ee\	.	.	.	.	.	.
.	.	8cc#\	8cc#\	.	.	.	.	.	.
.	.	8a\J	8a\J	.	.	.	.	.	.
=55	=55	=55	=55	=55	=55	=55	=55	=55	=55
4d\	.	8d/ 8a/ 8ff#/	8d/ 8a/ 8ff#/	4d\	et	4a\	Et	4dd\	4dd\
.	.	8aa\L	8aa\L	.	.	.	.	.	.
8D\L	.	8ff#\	8ff#\	4D/	vi-	4a\	vi-	8r	8r
!	!	!	!	!	!	!	!	!LO:TX:b:t=|:problem	!LO:TX:b:t=|:problem
8F#\	.	8dd\	8dd\	.	.	.	.	8dd/L	8dd/L
!	!	!	!	!	!	!	!	!LO:TX:b:t=|:problem	!LO:TX:b:t=|:problem
8A\	.	8a\	8a\	4D/	-tam	4a\	-tam	8a/	8a/
!	!	!	!	!	!	!	!	!LO:TX:b:t=|:problem	!LO:TX:b:t=|:problem
8d\J	.	8f#\J	8f#\J	.	.	.	.	8f#/J	8f#/J
=56	=56	=56	=56	=56	=56	=56	=56	=56	=56
!	!	!LO:TX:t=P:problem=mixed beam	!LO:TX:t=P:problem=mixed beam	!	!	!	!	!LO:TX:a:t=1	!LO:TX:a:t=1
4G\	.	8G/L	8G/L	4G\	ven-	4b\	ven-	2.r	2.r
.	.	8bb\	8bb\	.	.	.	.	.	.
2A\	7	8gg\	8gg\	2A\	-tu-	2cc#\	-tu-	.	.
.	.	8ee\	8ee\	.	.	.	.	.	.
.	.	8cc#\	8cc#\	.	.	.	.	.	.
.	.	8a\J	8a\J	.	.	.	.	.	.
!LO:LB:g=original	!	!	!	!	!	!	!	!	!
=57	=57	=57	=57	=57	=57	=57	=57	=57	=57
4d\	.	8d/ 8a/ 8ff#/	8d/ 8a/ 8ff#/	4d\	-ri	4.dd\	-ri	4dd\	4dd\
.	.	8aa\L	8aa\L	.	.	.	.	.	.
8D\L	.	8ff#\	8ff#\	8D/	ſae-	.	.	8r	8r
!	!	!	!	!	!	!	!	!LO:TX:b:t=|:problem	!LO:TX:b:t=|:problem
8F#\	.	8dd\	8dd\	8D/	-cu-	8a\	sae-	8dd/L	8dd/L
!	!	!	!	!	!	!	!	!LO:TX:b:t=|:problem	!LO:TX:b:t=|:problem
8A\	.	8a\	8a\	4D/	-li	8a\	-cu-	8a/	8a/
!	!	!	!	!	!	!	!	!LO:TX:b:t=|:problem	!LO:TX:b:t=|:problem
8d\J	.	8f#\J	8f#\J	.	.	8a\	-li	8f#/J	8f#/J
=58	=58	=58	=58	=58	=58	=58	=58	=58	=58
!	!	!LO:TX:t=P:problem=mixed beam	!LO:TX:a:t=|:problem	!	!	!	!	!	!
4G\	.	8G/L	8G/L	4G\	a-	4b\	a-	4ee\	4gg\
.	.	8bb\	8bb\	.	.	.	.	.	.
.	.	.	.	.	.	.	.	.	8qqff#/
4A\	7	8gg\	8gg\	2A\	.	2cc#t\	.	2a/	2ee\
.	.	8ee\	8ee\	.	.	.	.	.	.
4AA/	.	8cc#\	8cc#\	.	.	.	.	.	.
.	.	8a\J	8a\J	.	.	.	.	.	.
=59	=59	=59	=59	=59	=59	=59	=59	=59	=59
!	!	!	!	!	!	!	!	!LO:TX:t=P:problem=mixed beam	!LO:TX:t=P:problem=strona urwana
8D\L	.	4d/ 4a/ 4ff#/	4d/ 4a/ 4ff#/	4D/	-men	4dd\	-men	8f#/L	8dd\
!	!	!	!	!	!	!	!	!LO:TX:a:t=|:problem	!
8d\J	.	.	.	.	.	.	.	8dd\	8ryy
!	!	!	!	!	!	!	!	!LO:TX:a:t=|:problem	!
8A\L	.	4d/ 4a/ 4ff#/	4d/ 4a/ 4ff#/	4r	.	4r	.	8a\	2ryy
!	!	!	!	!	!	!	!	!LO:TX:a:t=|:problem	!
8d\J	.	.	.	.	.	.	.	8dd\	.
!LO:TX:a:t=|:problem	!	!	!	!	!	!	!	!LO:TX:a:t=|:problem	!
*	*	*	*	*	*ij	*	*ij	*	*
8F#\L	.	4d/ 4a/ 4ff#/	4d/ 4a/ 4ff#/	4d\	a-	4ff#\	a-	8f#\	.
!LO:TX:a:t=|:problem	!	!	!	!	!	!	!	!LO:TX:a:t=|:problem	!
8A\J	.	.	.	.	.	.	.	8a\J	.
!	!	!	!	!	!	!	!	!	!LO:LB:g=original
=60	=60	=60	=60	=60	=60	=60	=60	=60	=60
!	!	!	!	!	!	!	!	!LO:TX:t=P:problem=mixed beam	!LO:TX:b:t=|:problem
8D\L	.	4d/ 4a/ 4ff#/	4d/ 4a/ 4ff#/	4D/	-men	4dd\	-men	8d/L	8d/L
!	!	!	!	!	!	!	!	!	!LO:TX:b:t=|:problem
8d\J	.	.	.	.	.	.	.	8dd\	8dd/
!	!	!	!	!	!	!	!	!	!LO:TX:b:t=|:problem
8A\L	.	4d/ 4a/ 4ff#/	4d/ 4a/ 4ff#/	4r	.	4r	.	8a\	8a/
!	!	!	!	!	!	!	!	!	!LO:TX:b:t=|:problem
8d\J	.	.	.	.	.	.	.	8dd\	8dd/
!	!	!	!	!	!	!	!	!	!LO:TX:b:t=|:problem
8F#\L	.	4d/ 4a/ 4ff#/	4d/ 4a/ 4ff#/	4d\	a-	4ff#\	a-	8f#\	8f#/
!	!	!	!	!	!	!	!	!	!LO:TX:b:t=|:problem
8A\J	.	.	.	.	.	.	.	8a\J	8a/J
!	!	!	!	!	!	!	!	!LO:LB:g=original	!
=61	=61	=61	=61	=61	=61	=61	=61	=61	=61
*	*	*	*^	*	*	*	*	*	*
*	*	*	*	*^	*	*	*	*	*	*
!	!	!	!	!	!	!	!	!	!	!LO:TX:t=P:problem=mixed beam	!LO:TX:b:t=|:problem
8D/L	.	4d/ 4a/ 4ff#/	4d/ 4a/ 4ff#/	4ryy	4ryy	4D/	-men	4dd\	-men	8d/L	8d/L
*	*	*	*	*	*	*	*Xij	*	*Xij	*	*
!	!	!	!	!	!	!	!	!	!	!	!LO:TX:b:t=|:problem
8D/J	.	.	.	.	.	.	.	.	.	8dd\	8dd/
!	!	!	!	!	!	!	!	!	!	!	!LO:TX:b:t=|:problem
8AA/L	.	4d/ 4a/ 4ff#/	4d/	4ff#\	4ddd/	4r	.	4r	.	8a\	8a/
!	!	!	!	!	!	!	!	!	!	!	!LO:TX:b:t=|:problem
8D/J	.	.	.	.	.	.	.	.	.	8dd\	8dd/
!	!	!	!	!	!	!	!	!	!	!	!LO:TX:b:t=|:problem
8FF#/L	.	4d/ 4a/ 4ff#/	4d/	4ff#\	4ddd/	4d\	a-	4ff#\	a-	8f#\	8f#/
!	!	!	!	!	!	!	!	!	!	!	!LO:TX:b:t=|:problem
8AA/J	.	.	.	.	.	.	.	.	.	8a\J	8a/J
!	!	!	!	!	!	!	!	!LO:LB:g=original	!	!	!
=62	=62	=62	=62	=62	=62	=62	=62	=62	=62	=62	=62
*	*	*	*	*2\right	*	*	*	*	*	*	*
2DD/	.	2d/ 2a/ 2ff#/	2d/	2ff#\	2ddd/	2D/	-men:	2dd\	-men	2d/	2f#/
4r	.	4r	4r	4ryy	4ryy	4r	.	4r	.	4r	4r
*	*	*	*v	*v	*v	*	*	*	*	*	*
==	==	==	==	==	==	==	==	==	==
*-	*-	*-	*-	*-	*-	*-	*-	*-	*-
!!!system-decoration: [(s1,s2)][(s3,s4)][(s5,s6)]s7
!!!ENC: Andrzej Gręziak
!!!END: 2022-03-29
!!!ENC: Leszek Kubiak
!!!END: 2022-04-07
